X: 341
T: Caroline E. Fraser
C: Bert Murray
R: strathspey
B: Bert Murray's "Bon Accord Collection" 1999 p.34
%
N: This tune was written for Danny Fraser's Mother in Cape Breton.
Z: 2011 John Chambers <jc:trillian.mit.edu>
M: C
L: 1/16
K: D
uA,2 |\
F4 (F2ED) A,3DF3A | f3ed3B AF3 F3A | G4 (G2FE) B,3EG3B | g3fe3d c2BA G2FE |
F4 (F2ED) A,3DF3A | f3ed3B AF3 F3A | B2AB d2cB A3df3a | g2fe (.c3.a) (fd3) d2 ||
ue2 |\
f3a (f2ed) A3df3d | A3df3a ge3 e3f | g4 (g2fe) c3eg3e | c'2ba g2ab af3 f3e |
f4 (f2ed) A3df3d | A3df3a ge3 e3A | B2_B=B d2cB A3df3a | g2fe (.c3.a) (fd3) d2 |]
